public/assets/wave-haikei_03.svg

<svg width="960" height="540" xmlns="http://www.w3.org/2000/svg"><path d="M0 466h32c32 0 96 0 160-3.2 64-3.1 128-9.5 192-11s128 1.9 192 2.2c64 .3 128-2.3 192-2 64 .3 128 3.7 160 5.3l32 1.7v82H0Z" fill="#303956"/></svg>

<svg id="visual" viewBox="0 0 960 540" width="960" height="540" xmlns="http://www.w3.org/2000/svg" xmlns:xlink="http://www.w3.org/1999/xlink" version="1.1"><path d="M0 466L32 466C64 466 128 466 192 462.8C256 459.7 320 453.3 384 451.8C448 450.3 512 453.7 576 454C640 454.3 704 451.7 768 452C832 452.3 896 455.7 928 457.3L960 459L960 541L928 541C896 541 832 541 768 541C704 541 640 541 576 541C512 541 448 541 384 541C320 541 256 541 192 541C128 541 64 541 32 541L0 541Z" fill="#303956" stroke-linecap="round" stroke-linejoin="miter"></path></svg>
